X:152
T:The Ladies Pantalettes
R:reel
M:4/4
L:1/8
K:Gmaj
BdcA G2GB | A=FcF dBcA | BdcA G=feg |1 =fdcA BGGA :|2 =fdcA BGG2 |
g2gf d2de | fgag fdde | fgaf g2ag | =fdcA BGG2 |
fgaf g2ag | fgag fdde | =fede fgag | =fdcA BGG2 ||

